X: 23109
T: Laurel Tree, The
R: reel
M: 4/4
K: Adorian
eA ~A2 e2ed|BG~G2 Bcdg|eA ~A2 e2dc|BGdG BAA2|
eA ~A2 e2dc|BG~G2 BcdB|e3f gbag|gedB BAA2:|
eaag e2dc|BG~G2 Bcdf|ea~a2 a2ga|bagb a3g|
eaag e2dc|BG~G2 BcdB|e3f gbag|gedB BAA2:|

